source/assets/images/flags/Kenya.svg

<svg width="900" height="601" viewBox="0 0 900 601" xmlns="http://www.w3.org/2000/svg"><title>Kenya</title><g fill="none" fill-rule="evenodd"><path d="M120 601h780V81H120v520z" fill="#FFF"/><path d="M0 601h900V421H0v180z" fill="#1C5C31"/><path d="M0 180.964h900v-180H0v180z" fill="#0A0A08"/><path d="M342.83 479.125l6.494 3.75 175.173-303.41c10.245-2.744 15.87-12.487 21.495-22.23 3.75-6.495 18.75-32.475 25.25-66.235-25.985 22.51-40.985 48.49-44.735 54.986-5.625 9.742-11.25 19.485-8.505 29.73L342.83 479.126z" fill="#0A0A08"/><path d="M342.83 479.125l6.494 3.75 175.173-303.41c10.245-2.744 15.87-12.487 21.495-22.23 3.75-6.495 18.75-32.475 25.25-66.235-25.985 22.51-40.985 48.49-44.735 54.986-5.625 9.742-11.25 19.485-8.505 29.73L342.83 479.126z" stroke="#0A0A08"/><path d="M557.17 479.125l-6.494 3.75-175.173-303.41c-10.245-2.744-15.87-12.487-21.495-22.23-3.75-6.495-18.75-32.475-25.25-66.235 25.985 22.51 40.985 48.49 44.735 54.986 5.625 9.742 11.25 19.485 8.505 29.73l175.173 303.41z" fill="#0A0A08"/><path d="M557.17 479.125l-6.494 3.75-175.173-303.41c-10.245-2.744-15.87-12.487-21.495-22.23-3.75-6.495-18.75-32.475-25.25-66.235 25.985 22.51 40.985 48.49 44.735 54.986 5.625 9.742 11.25 19.485 8.505 29.73l175.173 303.41z" stroke="#0A0A08"/><path d="M342.83 479.125l6.494 3.75 175.173-303.41c10.245-2.744 15.87-12.487 21.495-22.23 3.75-6.495 18.75-32.475 25.25-66.235-25.985 22.51-40.985 48.49-44.735 54.986-5.625 9.742-11.25 19.485-8.505 29.73L342.83 479.126" fill="#FFF"/><path d="M557.17 479.125l-6.494 3.75-175.173-303.41c-10.245-2.744-15.87-12.487-21.495-22.23-3.75-6.495-18.75-32.475-25.25-66.235 25.985 22.51 40.985 48.49 44.735 54.986 5.625 9.742 11.25 19.485 8.505 29.73l175.173 303.41" fill="#FFF"/><path d="M0 211v180h378.75C390 421 427.5 481 450 481s60-60 71.25-90H900V211H521.25C510 181 472.5 121 450 121s-60 60-71.25 90H0" fill="#A82529"/><path d="M521.25 391C532.5 361 540 331 540 301s-7.5-60-18.75-90c-11.25 30-18.75 60-18.75 90s7.5 60 18.75 90M378.75 391C367.5 361 360 331 360 301s7.5-60 18.75-90c11.25 30 18.75 60 18.75 90s-7.5 60-18.75 90" fill="#0A0A08"/><path d="M450 278.5c8.284 0 15 10.074 15 22.5s-6.716 22.5-15 22.5c-8.284 0-15-10.074-15-22.5s6.716-22.5 15-22.5" fill="#FFF"/><path d="M453.75 322.937s15 30 15 78.75-15 78.75-15 78.75v-157.5M446.25 279.062s-15-30-15-78.75 15-78.75 15-78.75v157.5M446.25 322.937s-15 30-15 78.75 15 78.75 15 78.75v-157.5M453.75 279.062s15-30 15-78.75-15-78.75-15-78.75v157.5" fill="#FFF"/></g></svg>

<?xml version="1.0" encoding="UTF-8" standalone="no"?>
<svg width="900px" height="601px" viewBox="0 0 900 601" version="1.1" xmlns="http://www.w3.org/2000/svg" xmlns:xlink="http://www.w3.org/1999/xlink" xmlns:sketch="http://www.bohemiancoding.com/sketch/ns">
    <!-- Generator: Sketch 3.3.3 (12072) - http://www.bohemiancoding.com/sketch -->
    <title>Kenya</title>
    <desc>Created with Sketch.</desc>
    <defs></defs>
    <g id="Page-1" stroke="none" stroke-width="1" fill="none" fill-rule="evenodd" sketch:type="MSPage">
        <g id="Kenya" sketch:type="MSLayerGroup">
            <path d="M120,601 L900,601 L900,81 L120,81 L120,601 Z" id="Fill-1" fill="#FFFFFF" sketch:type="MSShapeGroup"></path>
            <path d="M0,601 L900,601 L900,421 L0,421 L0,601 Z" id="Fill-2" fill="#1C5C31" sketch:type="MSShapeGroup"></path>
            <path d="M0,180.964 L900,180.964 L900,0.964 L0,0.964 L0,180.964 Z" id="Fill-3" fill="#0A0A08" sketch:type="MSShapeGroup"></path>
            <path d="M342.829,479.125 L349.324,482.875 L524.497,179.466 C534.742,176.721 540.367,166.978 545.992,157.236 C549.742,150.74 564.742,124.76 571.243,91 C545.257,113.51 530.257,139.49 526.507,145.986 C520.882,155.728 515.257,165.471 518.002,175.716 L342.829,479.125 L342.829,479.125 Z" id="Fill-4" fill="#0A0A08" sketch:type="MSShapeGroup"></path>
            <path d="M342.829,479.125 L349.324,482.875 L524.497,179.466 C534.742,176.721 540.367,166.978 545.992,157.236 C549.742,150.74 564.742,124.76 571.243,91 C545.257,113.51 530.257,139.49 526.507,145.986 C520.882,155.728 515.257,165.471 518.002,175.716 L342.829,479.125 L342.829,479.125 Z" id="Stroke-5" stroke="#0A0A08" sketch:type="MSShapeGroup"></path>
            <path d="M557.171,479.125 L550.676,482.875 L375.503,179.466 C365.258,176.721 359.633,166.978 354.008,157.236 C350.258,150.74 335.258,124.76 328.757,91 C354.743,113.51 369.743,139.49 373.493,145.986 C379.118,155.728 384.743,165.471 381.998,175.716 L557.171,479.125 L557.171,479.125 Z" id="Fill-6" fill="#0A0A08" sketch:type="MSShapeGroup"></path>
            <path d="M557.171,479.125 L550.676,482.875 L375.503,179.466 C365.258,176.721 359.633,166.978 354.008,157.236 C350.258,150.74 335.258,124.76 328.757,91 C354.743,113.51 369.743,139.49 373.493,145.986 C379.118,155.728 384.743,165.471 381.998,175.716 L557.171,479.125 L557.171,479.125 Z" id="Stroke-7" stroke="#0A0A08" sketch:type="MSShapeGroup"></path>
            <path d="M342.829,479.125 L349.324,482.875 L524.497,179.466 C534.742,176.721 540.367,166.978 545.992,157.236 C549.742,150.74 564.742,124.76 571.243,91 C545.257,113.51 530.257,139.49 526.507,145.986 C520.882,155.728 515.257,165.471 518.002,175.716 L342.829,479.125" id="Fill-8" fill="#FFFFFF" sketch:type="MSShapeGroup"></path>
            <path d="M557.171,479.125 L550.676,482.875 L375.503,179.466 C365.258,176.721 359.633,166.978 354.008,157.236 C350.258,150.74 335.258,124.76 328.757,91 C354.743,113.51 369.743,139.49 373.493,145.986 C379.118,155.728 384.743,165.471 381.998,175.716 L557.171,479.125" id="Fill-9" fill="#FFFFFF" sketch:type="MSShapeGroup"></path>
            <path d="M0,211 L0,391 L378.75,391 C390,421 427.5,481 450,481 C472.5,481 510,421 521.25,391 L900,391 L900,211 L521.25,211 C510,181 472.5,121 450,121 C427.5,121 390,181 378.75,211 L0,211" id="Fill-10" fill="#A82529" sketch:type="MSShapeGroup"></path>
            <path d="M521.25,391 C532.5,361 540,331 540,301 C540,271 532.5,241 521.25,211 C510,241 502.5,271 502.5,301 C502.5,331 510,361 521.25,391" id="Fill-11" fill="#0A0A08" sketch:type="MSShapeGroup"></path>
            <path d="M378.75,391 C367.5,361 360,331 360,301 C360,271 367.5,241 378.75,211 C390,241 397.5,271 397.5,301 C397.5,331 390,361 378.75,391" id="Fill-12" fill="#0A0A08" sketch:type="MSShapeGroup"></path>
            <path d="M450,278.5 C458.284,278.5 465,288.574 465,301 C465,313.426 458.284,323.5 450,323.5 C441.716,323.5 435,313.426 435,301 C435,288.574 441.716,278.5 450,278.5" id="Fill-13" fill="#FFFFFF" sketch:type="MSShapeGroup"></path>
            <path d="M453.75,322.937 C453.75,322.937 468.75,352.937 468.75,401.687 C468.75,450.437 453.75,480.437 453.75,480.437 L453.75,322.937" id="Fill-14" fill="#FFFFFF" sketch:type="MSShapeGroup"></path>
            <path d="M446.25,279.062 C446.25,279.062 431.25,249.062 431.25,200.312 C431.25,151.562 446.25,121.563 446.25,121.563 L446.25,279.062" id="Fill-15" fill="#FFFFFF" sketch:type="MSShapeGroup"></path>
            <path d="M446.25,322.937 C446.25,322.937 431.25,352.937 431.25,401.687 C431.25,450.437 446.25,480.437 446.25,480.437 L446.25,322.937" id="Fill-16" fill="#FFFFFF" sketch:type="MSShapeGroup"></path>
            <path d="M453.75,279.062 C453.75,279.062 468.75,249.062 468.75,200.312 C468.75,151.562 453.75,121.563 453.75,121.563 L453.75,279.062" id="Fill-17" fill="#FFFFFF" sketch:type="MSShapeGroup"></path>
        </g>
    </g>
</svg>
